X:1
T:Keyboard Sonata in G minor (K. 111)
T:Keyboard Sonata in G minor (K. 111)
T:Domenico Scarlatti
T:Edited by Antoine Portes | Creative Commons Zero 1.0
T:Edited by Antoine Portes | Creative Commons Zero 1.0
C:Domenico Scarlatti
Z:Edited by Antoine Portes | Creative Commons Zero 1.0
%%score { ( 1 4 ) | ( 2 3 ) }
L:1/8
Q:1/4=206
M:12/8
K:Bb
V:1 treble nm="Harpsichord" snm="Hch."
V:4 treble 
V:2 bass 
V:3 bass 
V:1
"^Allegro" gdB GDB, B,3 !breath!TA,3 | gdB GDB, B,3 !breath!TA,3 | a^fc A^FC C3 !breath!TB,3 | %3
 a^fc A^FC C3 !breath!TB,3 |[Q:1/4=201]"^Allegro" z2 z z [GBg]2- [GBg]3 .[Acd^f]3 | %5
 z2 z z [GBg]2- [GBg]3 .[Acd^f]3 | z2 z z [Acd^f]2- [Acdf]3 .[GBdg]3 | %7
 z2 z z [Ac^fa]2- [Acfa]3 .[Bdgb]3 | z2 z z [=EGA^c]2- [EGAc]3 .[DFAd]3 | %9
 z2 z z [=EGA^c=e]2- [EGAce]3[Q:1/4=206]"^Allegro" fga | bag f=ed d3 !breath!T^c3 | %11
 g=e^c G=E^C- C3 .D3 | g=e^c G=E^C- C3 .D3 | bg=e ^cBG Afe gfa |{g} f=ef gfe Td3 z2 !fermata!z | %15
[Q:1/4=201]"^Allegro" z2 z z [Fdf]2- [Fdf]3 !breath!.[G^c=e]3 | %16
 z2 z z [DFd]2- [DFd]3 !breath!.[=EG^c]3 | z2 z z [Afa]2- [Afa]3 !breath!.[A^c=eg]3 | %18
 z2 z z [Fdf]2- [Fdf]3 !breath!.[GA^c=e]3 | g=e^c G=E^C- C3 .D3 | g=e^c G=E^C- C3 .D3 | %21
[Q:1/4=206]"^Allegro" bg=e ^cBG Afe gfa |{g} f=ef gfe dF=E GFA | F=EF GFE TD3 z2 !fermata!z :: %24
 a^fc A^FC C3 !breath!TB,3 | bgd BGD D3 !breath!TC3 | c'ae cAE E3 !breath!TD3 | %27
[Q:1/4=201]"^Allegro" bfd BFD D3 !breath!TC3 | bfd BFD D3 !breath!TC3 | %29
 z2 z z [Ace]2- [Ace]3 .[Bdf]3 | z2 z z [cefa]2- [cefa]3 .[dfb]3 | z2 z z [=Bdf]2- [Bdf]3 .[ceg]3 | %32
 z2 z z [dfg=b]2- [dfgb]3 .[egc']3 | z2 z z [^c=eg]2- [ceg]3 .[dfa]3 | %34
 z2 z z [=ega^c']2- [egac']3[Q:1/4=206]"^Allegro" d'a=c' | bac' bag ^f_ed cBA | %36
 BAc BAG- G3 !breath!T^F3 |[Q:1/4=201]"^Allegro" a^f_e cA^F- F3 !breath!TG3 | a^f_e cA^F- F3 TG3 | %39
[Q:1/4=206]"^Allegro" aec A^FE DBA cBd | BAc BAG G3 !breath!T^F3 | %41
[Q:1/4=201]"^Allegro" z2 z z [Acd^f]2- [Acdf]3 .[GBdg]3 | z2 z z [Ac^fa]2- [Acfa]3 .[Bdgb]3 | %43
 z2 z z ^f2[Q:1/4=206]"^Allegro" gd=f edc' | bab c'ba gd'b gdB | %45
[Q:1/4=201]"^Allegro" z2 z z [GBg]2- [GBg]3 .[Acd^f]3 | z2 z z [B^cb]2- [Bcb]3 .[Ad^fa]3 | %47
 z2 z z [GBg]2- [GBg]3 .[Acd^f]3 | z2 z z [B^cb]2- [Bcb]3 .[Ad^fa]3 | %49
 z2 z z [Acd^f]2- [Acdf]3 .[GBdg]3 | z2 z z [Ac^fa]2- [Acfa]3 .[Bdgb]3 | %51
 z2 z z ^f2[Q:1/4=206]"^Allegro" gd=f edc' | bab c'ba gBA cBd |{c} BAB cBA GDB, x3 | z12 :| %55
V:2
 G,3 G,,3 D,3 D,,3 | G,3 G,,3 D,3 D,,3 | D,3 D,,3 G,,3 G,3 | D3 D,3 G,3 G,,3 | GDB, G,EC D3 .D,3 | %5
 GDB, G,EC D3 .D,3 | DA,^F, D,CA, B,3 .G,3 | DA,^F, D,CA, B,3 .G,3 | A,=E,^C, A,,G,E, F,3 .D,3 | %9
 A,=E,^C, A,,G,E, F,3 D,3 | G,3 G,,3 A,,3 A,,,3 | A,6- A,3 .G,3 | A,6- A,3 .G,3 | %13
 G,,3 [G,^C=E]3 [F,D]3 [G,E]3 | [A,DF]3 [A,^C=E]3 [D,D]3 z2 !fermata!z | DB,F, D,B,^G, A,3 .A,,3 | %16
 DB,F, D,B,^G, A,3 .A,,3 | DB,F, D,B,^G, A,3 .A,,3 | DB,F, D,B,^G, A,3 .A,,3 | A,6- A,3 .G,3 | %20
 A,6- A,3 .G,3 | G,,3 [G,=E]3 [F,D]3 [G,E]3 | [A,DF]3 [A,^C=E]3 [D,D]3 G,3 | %23
 A,3 A,,3 !fermata!D,,3 z2 !fermata!z :: D,3 ^F,3 G,3 G,,3 | z2 z G,3 A,,3 A,3 | %26
 z2 z A,3 B,,3 B,3 | B,,3 D,3 F,3 F,,3 | B,,3 D,3 F,3 !fermata!F,,3 | FCA, F,EC D3 .B,3 | %30
 FCA, F,EC D3 .B,3 | GD=B, G,FD E3 .C3 | GD=B, G,FD E3 .C3 | A=E^C A,GE F3 D3 | A=E^C A,GE F3 D3 | %35
 G3 C3 D3 ^F,3 | G,3 C,3 D,3 !fermata!D,,3 | D6- D3 C3 | D6- D3 C3 | z2 z A,6 G,3- | %40
 G,3 C,3 D,3 D,,3 | DA,^F, D,A,,D,, G,,,3 z2 z | DA,^F, D,A,,D,, G,,,3 z2 z | %43
 DA,^F, D,A,,D,, G,,,3 C3 | D3 D,3 G,,3 z2 z | GDB, G,E^C D3 .D,3 | GDB, G,E^C D3 .D,3 | %47
 GDB, G,E^C D3 .D,3 | GDB, G,E^C D3 .D,3 | DA,^F, D,A,,D,, G,,,3 z2 z | %50
 DA,^F, D,A,,D,, G,,,3 z2 z | DA,^F, D,A,,D,, G,,,3 C3 | D3 D,3 G,3 C,3 | D,3 D,,3 G,,3 G,D,B,, | %54
 G,,B,,D, G,B,[I:staff -1]D[I:staff +1] !fermata!TG,,3 z2 !fermata!z :| %55
V:3
 x12 | x12 | x12 | x12 | x12 | x12 | x12 | x12 | x12 | x12 | x12 | z2 z A,,3 B,,6 | %12
 z2 z A,,3 B,,6 | x12 | x12 | x12 | x12 | x12 | x12 | z2 z A,,3 B,,6 | z2 z A,,3 B,,6 | x12 | x12 | %23
 x12 :: x12 | x12 | x12 | x12 | x12 | x12 | x12 | x12 | x12 | x12 | x12 | x12 | x12 | %37
 z2 z D,3 E,6 | z2 z D,3 E,6 | C,6 B,,6 | E,3 x3 x6 | x12 | x12 | x12 | x12 | x12 | x12 | x12 | %48
 x12 | x12 | x12 | x12 | x12 | x12 | x12 :| %55
V:4
 x12 | x12 | x12 | x12 | x12 | x12 | x12 | x12 | x12 | x12 | x12 | x12 | x12 | x12 | x12 | x12 | %16
 x12 | x12 | x12 | x12 | x12 | x12 | x12 | x12 :: x12 | x12 | x12 | x12 | x12 | x12 | x12 | x12 | %32
 x12 | x12 | x12 | x12 | x12 | x12 | x12 | x12 | x12 | x12 | x12 | x2 x x [Acd]2 B2 x4 | x12 | %45
 x12 | x12 | x12 | x12 | x12 | x12 | x4 [Acd]2 B2 x4 | x12 | x12 | x12 :| %55

